src/telerik-icons/solid/folder-more.svg

<?xml version="1.0" encoding="utf-8"?>
<svg xmlns="http://www.w3.org/2000/svg" width="512" height="512" viewBox="0 0 512 512">
  <path d="M64 384h96v32H64c-17.7 0-32-14.3-32-32V96c0-17.7 14.3-32 32-32h128l64 64h-45.2l-32-32H64v288zm192-32c-17.7 0-32 14.3-32 32s14.3 32 32 32 32-14.3 32-32-14.3-32-32-32zm160-64v-96c0-17.7-14.3-32-32-32H96v32h288v96h32zm32 64c-17.7 0-32 14.3-32 32s14.3 32 32 32 32-14.3 32-32-14.3-32-32-32zm-96 0c-17.7 0-32 14.3-32 32s14.3 32 32 32 32-14.3 32-32-14.3-32-32-32z"/>
</svg>

<?xml version="1.0" encoding="utf-8"?>
<!-- Generator: Adobe Illustrator 20.1.0, SVG Export Plug-In . SVG Version: 6.00 Build 0)  -->
<svg xmlns="http://www.w3.org/2000/svg" width="512" height="512" viewBox="0 0 512 512">
<path d="M64,384h96v32H64c-17.7,0-32-14.3-32-32V96c0-17.7,14.3-32,32-32h128l64,64h-45.2l-32-32H64V384z M256,352
	c-17.7,0-32,14.3-32,32c0,17.7,14.3,32,32,32s32-14.3,32-32C288,366.3,273.7,352,256,352z M416,288v-96c0-17.7-14.3-32-32-32H96v32
	h288v96H416z M448,352c-17.7,0-32,14.3-32,32c0,17.7,14.3,32,32,32s32-14.3,32-32C480,366.3,465.7,352,448,352z M352,352
	c-17.7,0-32,14.3-32,32c0,17.7,14.3,32,32,32s32-14.3,32-32C384,366.3,369.7,352,352,352z" />
</svg>
